Simply black circles/scalable/actions/go-home.svg

<svg xmlns="http://www.w3.org/2000/svg" width="24" height="24" viewBox="0 0 6.35 6.35">
  <path fill="#333" d="M3.1751.06A3.1143 3.1143 0 0 0 .0607 3.1745a3.1143 3.1143 0 0 0 3.1144 3.1142 3.1143 3.1143 0 0 0 3.1142-3.1142A3.1143 3.1143 0 0 0 3.1751.06zm-.00896.4637a2.6774 2.6774 0 0 1 2.6774 2.6774 2.6774 2.6774 0 0 1-2.6774 2.6774 2.6774 2.6774 0 0 1-2.6776-2.6774A2.6774 2.6774 0 0 1 3.16614.5237zm0 .26204l-2.4435 2.4435.47288.47284.39407-.39406v1.8915h1.2613v-.94576c0-.17465.14059-.31524.31525-.31524.17466 0 .31525.14059.31525.31524v.94576h1.261v-1.8915l.39407.39406.47314-.47284zm.94576.31524v.23647l.63051.63046v-.86693z"/>
</svg>

<svg xmlns="http://www.w3.org/2000/svg" width="24" height="24" viewBox="0 0 6.35 6.35"><path fill="#333" d="M3.175.06A3.114 3.114 0 0 0 .061 3.175a3.114 3.114 0 0 0 3.114 3.114A3.114 3.114 0 0 0 6.29 3.175 3.114 3.114 0 0 0 3.175.06zm-.009.464A2.677 2.677 0 0 1 5.844 3.2 2.677 2.677 0 0 1 3.166 5.88 2.677 2.677 0 0 1 .49 3.2 2.677 2.677 0 0 1 3.166.524zm0 .262L.723 3.229l.473.473.394-.394V5.2h1.26v-.946a.315.315 0 1 1 .631 0V5.2h1.261V3.308l.394.394.474-.473zm.946.315v.236l.63.63v-.866z"/></svg>
